X: 8
T: Maid Behind the Bar
M:C|
R:reel
K:D
"D"FAAB AFED| FAAB ABde| "Bm"fBBA Bcde| "D"f2af "A"edBA|
"D"FAAB AFED| FAAB ABde| "Bm"fBBA "G"BcdB| "A"AFEF "D"D4 :|
|: "D"faag fd ~d2|fdad fddf| "Em"efga beef|gebe geeg|
"D"faaf bfaf| defd "A"e2 de| "Bm"fBBA "G"BcdB| "A"AFEF "D"D4 :|


